X:1511
T:Destitution, The
O:england
C:Ian Stephenson
R:reel
D:Kathryn Tickell Band
D:L\'a Lugh
M:C|
K:Em
E2{c}BE cE{c}BE|dcBc ABGA|E2{c}BE cEBE|{c}AGFG Ad{c}BG|
E2{c}BE cEBE|dcBc ABGA|EBFB GBFB|{c}AGFG {c}BEE2:|
|:Bede bede|Bede fga2|Bede bede|AB{c}BA BE~E2|
Bede bede|Bede fga2|b2af {a}gfed|1 AB{c}BA BE~E2:|2 AB{c}BA GAFG||
"variations"
|:E2BE cEBc|dcBc ABGF|E2BE cEBc|AGFG AdBG|
E2BE cEBc|dcBc ABGF|EB~B2 GBFB|AGFA BE~E2:|
|:Bede befe|Bede fga2|Bede befe|BcBA BE~E2|
Bede befe|Bede fga2|(3bag af gefd|1 BdAc BE~E2:|2 edBA GAFG||


